X:1
T:Christ Is My All in All
T:Christ Is My All in All
T:W. R. Chambers
T:Miriam Eulalie Oatman, 1904
T:Public Domain Courtesy of the Cyber Hymnal™
C:W. R. Chambers
Z:Public Domain
Z:Courtesy of the Cyber Hymnal™
%%score ( 1 2 ) ( 3 4 )
L:1/8
Q:1/4=93
M:6/8
K:G
V:1 treble 
V:2 treble 
V:3 bass 
V:4 bass 
V:1
 [DB] | [Gd]>[Ge][Gd] [GB][DA][DG] | [EA] [EG]4 [CE] | [B,D][DG][DA] [DB][DA][^CG] | %4
w: 1.~What-|ev- er the woes that be-|tide me, What-|ev- er the ills that be-|
w: 2.~The|Sav- ior is lead- ing me|gent- ly, And|guid- ing my steps lest they|
w: 3.~With|Him as my guide and my|mas- ter, No|dark- ness nor gloom can ap-|
 [DA]3- [DA]2 [DB] | [Gd]>[Ge][Gd] [GB][DA][DG] | [Ec] [Ge]4 [Ge] | [Gd][GB]G [GB]2 [FA] G3- G2 || %8
w: fall, * There’s|naught that can in- jure or|harm me, For|Christ is my all in all. *|
w: fall; * No|dan- ger that comes can a-|larm me, For|He is my all in all. *|
w: pall; * His|glo- ry dis- pels ev- ery|sha- dow, And|He is my all in all. *|
"^Refrain" G x4 | [Gc][Gc][Gc] [Gc][Gc][Gc] | [Ge] [Gd]4 [GB] | [Gd][Ge][Gd] [GB][DA][EG] | %12
w: ||||
w: The|Lord is my re- fuge in|trou- ble, My|shel- ter what- ev- er be-|
w: ||||
 [FA]3- [FA]2 D | [DG][DG][DG] [=FB][FA][FG] | [Ec][Gc][Gd] [Ge]2 [Ge] | [Gd][GB]G [GB]2 [DA] | %16
w: ||||
w: fall; * My|heart can- not fear when the|Mas- ter is near, For|He is my all in|
w: ||||
 [DG]3- [DG]2 x |] x5 |] %18
w: ||
w: all. *||
w: ||
V:2
 x | x6 | x6 | x6 | x6 | x6 | x6 | x2 G x2 G3- G2 x || G x4 | x6 | x6 | x6 | x5 D | x6 | x6 | %15
 x2 G x3 | x6 |] x5 |] %18
V:3
 G, | [G,B,]>[G,C][G,B,] [G,D][G,C][G,B,] | [C,C] [C,C]4 [C,G,] | %3
 [G,,G,][B,,G,][D,F,] G,[D,F,][E,G,] | [D,F,]3- [D,F,]2 G, | [G,B,]>[G,C][G,B,] [G,D][G,C][G,B,] | %6
 [C,C] [C,C]4 [C,C] | [D,B,][D,D][D,B,] [D,D]2 [D,C] x5 || [G,,B,]3- [G,,B,]2 | [G,B,] x5 | %10
 [C,E][C,E][C,E] [C,E][C,E][C,E] | [G,C] [G,B,]4 [G,D] | [G,B,][G,C][G,B,] [G,D][F,D][E,^C] | %13
 [D,D]3- [D,D]2 [G,B,] | [G,B,][G,B,][G,B,] [G,D][G,C][G,B,] | [C,C][E,C][G,B,] C2 [C,C] | %16
 [D,B,][D,D][E,B,] [D,D]2 [D,C] |] [G,,B,]3- [G,,B,]2 |] %18
V:4
 G, | x6 | x6 | x3 G, x2 | x5 G, | x6 | x6 | x11 || x5 | x6 | x6 | x6 | x6 | x6 | x6 | x3 C2 x | %16
 x6 |] x5 |] %18

